assets/images/icons/src/calendar-plus-o.svg

<?xml version="1.0" encoding="utf-8"?>
<!-- Generated by IcoMoon.io -->
<!DOCTYPE svg PUBLIC "-//W3C//DTD SVG 1.1//EN" "http://www.w3.org/Graphics/SVG/1.1/DTD/svg11.dtd">
<svg version="1.1" xmlns="http://www.w3.org/2000/svg" xmlns:xlink="http://www.w3.org/1999/xlink" width="13" height="14" viewBox="0 0 13 14">
<path fill="#444444" d="M12 2q0.406 0 0.703 0.297t0.297 0.703v10q0 0.406-0.297 0.703t-0.703 0.297h-11q-0.406 0-0.703-0.297t-0.297-0.703v-10q0-0.406 0.297-0.703t0.703-0.297h1v-0.75q0-0.516 0.367-0.883t0.883-0.367h0.5q0.516 0 0.883 0.367t0.367 0.883v0.75h3v-0.75q0-0.516 0.367-0.883t0.883-0.367h0.5q0.516 0 0.883 0.367t0.367 0.883v0.75h1zM9 1.25v2.25q0 0.109 0.070 0.18t0.18 0.070h0.5q0.109 0 0.18-0.070t0.070-0.18v-2.25q0-0.109-0.070-0.18t-0.18-0.070h-0.5q-0.109 0-0.18 0.070t-0.070 0.18zM3 1.25v2.25q0 0.109 0.070 0.18t0.18 0.070h0.5q0.109 0 0.18-0.070t0.070-0.18v-2.25q0-0.109-0.070-0.18t-0.18-0.070h-0.5q-0.109 0-0.18 0.070t-0.070 0.18zM12 13v-8h-11v8h11zM7 8.5h1.75q0.109 0 0.18 0.070t0.070 0.18v0.5q0 0.109-0.070 0.18t-0.18 0.070h-1.75v1.75q0 0.109-0.070 0.18t-0.18 0.070h-0.5q-0.109 0-0.18-0.070t-0.070-0.18v-1.75h-1.75q-0.109 0-0.18-0.070t-0.070-0.18v-0.5q0-0.109 0.070-0.18t0.18-0.070h1.75v-1.75q0-0.109 0.070-0.18t0.18-0.070h0.5q0.109 0 0.18 0.070t0.070 0.18v1.75z"></path>
</svg>

<svg xmlns="http://www.w3.org/2000/svg" width="13" height="14" viewBox="0 0 13 14"><path fill="#444" d="M12 2q.406 0 .703.297T13 3v10q0 .406-.297.703T12 14H1q-.406 0-.703-.297T0 13V3q0-.406.297-.703T1 2h1v-.75q0-.516.367-.883T3.25 0h.5q.516 0 .883.367T5 1.25V2h3v-.75q0-.516.367-.883T9.25 0h.5q.516 0 .883.367T11 1.25V2h1zm-3-.75V3.5q0 .109.07.18t.18.07h.5q.109 0 .18-.07T10 3.5V1.25q0-.109-.07-.18T9.75 1h-.5q-.109 0-.18.07T9 1.25zm-6 0V3.5q0 .109.07.18t.18.07h.5q.109 0 .18-.07T4 3.5V1.25q0-.109-.07-.18T3.75 1h-.5q-.109 0-.18.07T3 1.25zM12 13V5H1v8h11zM7 8.5h1.75q.109 0 .18.07t.07.18v.5q0 .109-.07.18t-.18.07H7v1.75q0 .109-.07.18t-.18.07h-.5q-.109 0-.18-.07T6 11.25V9.5H4.25q-.109 0-.18-.07T4 9.25v-.5q0-.109.07-.18t.18-.07H6V6.75q0-.109.07-.18t.18-.07h.5q.109 0 .18.07t.07.18V8.5z"/></svg>
